X:1
T:Kelly's Jig
M:9/8
L:1/8
Q:80
C:arr. Kent Hiestand
S:Jig
K:HP
|: {gef}e3{A}efe{A}edB | \
{gef}e3{g}d2B{G}ABd | \
{gef}e3{A}efeedB |
{Gdc}d3{c}d2B{G}ABd :: \
{gf}g2e{g}fed{gef}e3 | \
{gf}g2e{g}fed{g}ABd |
{gf}g2e{g}fed{gef}e3 | \
{Gdc}d3{c}d2B{G}ABd :|
